img/icons-payable-taxes/10.svg

<svg width="50" height="42" viewBox="0 0 50 42" fill="none" xmlns="http://www.w3.org/2000/svg">
<path d="M49.983 23.95L49.6046 21.3013C49.5325 20.7964 49.2407 20.3553 48.8043 20.0914C48.3675 19.8276 47.8416 19.7741 47.3609 19.945L40.1638 22.5035V11.4332L41.036 11.8199C41.1854 11.8861 41.3417 11.9174 41.4955 11.9174C41.9325 11.9173 42.3502 11.6646 42.5385 11.2402L43.5806 8.88971C43.7039 8.61158 43.7115 8.30211 43.602 8.01823C43.4926 7.73444 43.2791 7.51012 43.0012 7.38698L34.0774 3.43082C33.7074 3.26666 33.2748 3.43375 33.111 3.80348C32.9471 4.1733 33.114 4.60602 33.4837 4.76989L42.1093 8.59381L41.3314 10.3484L27.4535 4.19596C27.2645 4.11227 27.0487 4.11227 26.8598 4.19596L12.9821 10.3484L12.2043 8.59391L26.7679 2.13756C27.015 2.02789 27.2985 2.02789 27.5457 2.13756L30.88 3.61569C31.2497 3.77965 31.6824 3.61276 31.8464 3.24293C32.0103 2.87321 31.8435 2.44049 31.4736 2.27653L28.1395 0.798401C27.515 0.521448 26.7987 0.521448 26.1742 0.798401L21.2343 2.98844V1.55406C21.2343 1.02272 20.802 0.590393 20.2706 0.590393H17.4864C16.9551 0.590393 16.5228 1.02272 16.5228 1.55406V5.07711L11.3129 7.38678C11.0347 7.51002 10.8212 7.73424 10.7116 8.01813C10.6021 8.30192 10.6098 8.61149 10.7331 8.88951L11.7754 11.2402C12.0298 11.814 12.7035 12.0742 13.2779 11.8197L14.15 11.4331V15.6001C14.15 16.0047 14.4778 16.3325 14.8824 16.3325C15.287 16.3325 15.6148 16.0047 15.6148 15.6001V10.7837L27.1568 5.66666L38.699 10.7837V23.0243L30.8039 25.8309V23.0713C30.8039 22.2025 30.0972 21.4958 29.2284 21.4958H25.0853C24.2165 21.4958 23.5097 22.2025 23.5097 23.0713V25.2353L22.4524 24.3717C22.0044 24.0057 21.4391 23.8042 20.8605 23.8042H15.6146V18.432C15.6146 18.0274 15.2868 17.6996 14.8822 17.6996C14.4776 17.6996 14.1498 18.0274 14.1498 18.432V23.8042H12.6253V22.0859C12.6253 21.2282 11.9274 20.5302 11.0696 20.5302H1.55576C0.697851 20.5304 0 21.2283 0 22.086V39.4538C0 40.3116 0.697851 41.0095 1.55576 41.0095H11.0696C11.9273 41.0095 12.6253 40.3117 12.6253 39.4538V39.2926L30.3894 41.3716C31.927 41.5581 33.4511 41.0452 34.5652 39.9586L37.5828 37.0151C37.8724 36.7326 37.878 36.2689 37.5957 35.9794C37.3132 35.6898 36.8496 35.6841 36.56 35.9665L33.5425 38.9099C32.7497 39.6833 31.6644 40.05 30.5625 39.9171L12.6253 37.8177V25.2691H20.8605C21.1023 25.2691 21.3386 25.3533 21.5258 25.5063C22.7 26.4654 25.0813 28.4106 26.3029 29.4085C26.4016 29.4889 26.421 29.5925 26.4238 29.647C26.4267 29.7015 26.418 29.8066 26.3284 29.8969L24.6074 31.6311C24.4934 31.7462 24.3145 31.762 24.1819 31.6678L20.686 29.1889C20.3561 28.9549 19.8987 29.0328 19.6649 29.3628C19.431 29.6927 19.5088 30.1499 19.8388 30.3839L23.3347 32.8628C23.6494 33.0859 24.0126 33.1953 24.3738 33.1953C24.8378 33.1953 25.2981 33.0146 25.6473 32.6629L27.3683 30.9288C27.7241 30.5701 27.913 30.0752 27.8867 29.5707C27.8674 29.1996 27.7327 28.8458 27.5071 28.5574L47.8516 21.3252C47.9406 21.2938 48.012 21.324 48.0465 21.345C48.0811 21.3659 48.1412 21.415 48.1545 21.5084L48.5329 24.1571C48.5432 24.2291 48.5184 24.3024 48.4661 24.3532L38.5983 33.9782C38.3088 34.2607 38.3031 34.7244 38.5854 35.0139C38.729 35.1611 38.9193 35.2349 39.1099 35.2349C39.2942 35.2349 39.4787 35.1657 39.6212 35.0268L49.4889 25.4018C49.8745 25.0258 50.0592 24.4831 49.983 23.95ZM17.9874 2.05524H19.7692V3.63785L17.9874 4.4278V2.05524ZM11.1604 39.4538C11.1604 39.504 11.1196 39.5447 11.0695 39.5447H1.55576C1.50557 39.5447 1.46484 39.504 1.46484 39.4538V22.086C1.46484 22.0359 1.50557 21.9952 1.55576 21.9952H11.0696C11.1197 21.9952 11.1604 22.0359 11.1604 22.086V39.4538H11.1604ZM24.9744 23.0713C24.9744 23.0102 25.0241 22.9606 25.0852 22.9606H29.2283C29.2894 22.9606 29.339 23.0102 29.339 23.0713V26.3516L26.2295 27.457L24.9744 26.4318V23.0713Z" fill="#007A65"/>
</svg>

<svg width="50" height="42" fill="none" xmlns="http://www.w3.org/2000/svg"><path d="M49.983 23.95l-.378-2.649a1.688 1.688 0 00-.8-1.21 1.688 1.688 0 00-1.444-.146l-7.197 2.558v-11.07l.872.387a1.141 1.141 0 001.502-.58l1.043-2.35c.123-.278.13-.588.021-.872a1.131 1.131 0 00-.6-.631l-8.925-3.956a.732.732 0 10-.593 1.339l8.625 3.824-.778 1.754-13.878-6.152a.733.733 0 00-.593 0l-13.878 6.152-.778-1.754 14.564-6.456a.96.96 0 01.778 0l3.334 1.478a.732.732 0 10.594-1.34L28.14.799a2.428 2.428 0 00-1.966 0l-4.94 2.19V1.554a.965.965 0 00-.963-.964h-2.785a.965.965 0 00-.963.964v3.523l-5.21 2.31a1.132 1.132 0 00-.601.631c-.11.284-.102.593.021.872l1.042 2.35a1.14 1.14 0 001.503.58l.872-.387V15.6a.732.732 0 101.465 0v-4.816l11.542-5.117 11.542 5.117v12.24l-7.895 2.807v-2.76c0-.869-.707-1.575-1.576-1.575h-4.143c-.869 0-1.575.707-1.575 1.575v2.164l-1.058-.863a2.523 2.523 0 00-1.592-.568h-5.245v-5.372a.732.732 0 10-1.465 0v5.372h-1.525v-1.718c0-.858-.698-1.556-1.555-1.556H1.556C.698 20.53 0 21.228 0 22.086v17.368c0 .858.698 1.556 1.556 1.556h9.514c.857 0 1.555-.698 1.555-1.556v-.161l17.764 2.079a5.08 5.08 0 004.176-1.413l3.018-2.944a.733.733 0 00-1.023-1.048l-3.018 2.943a3.624 3.624 0 01-2.98 1.007l-17.937-2.1V25.27h8.235c.242 0 .479.084.666.237l4.777 3.902a.32.32 0 01.12.239.327.327 0 01-.095.25l-1.72 1.734a.329.329 0 01-.426.037l-3.496-2.48a.732.732 0 10-.847 1.196l3.496 2.479a1.793 1.793 0 002.312-.2l1.721-1.734a1.799 1.799 0 00.14-2.372l20.344-7.232a.226.226 0 01.195.02c.034.02.094.07.108.163l.378 2.65a.229.229 0 01-.067.195l-9.868 9.625a.733.733 0 001.023 1.049l9.868-9.625c.386-.376.57-.919.494-1.452zM17.987 2.055h1.782v1.583l-1.782.79V2.055zM11.16 39.454c0 .05-.04.09-.09.09H1.556a.09.09 0 01-.091-.09V22.086c0-.05.04-.09.09-.09h9.515c.05 0 .09.04.09.09v17.368zM24.974 23.07c0-.06.05-.11.111-.11h4.143c.061 0 .111.05.111.11v3.28l-3.11 1.106-1.255-1.025v-3.36z" fill="#007A65"/></svg>
